pix_core/e/math.svg

<svg preserveAspectRatio="xMinYMid meet" viewBox="0 0 576 512" xmlns="http://www.w3.org/2000/svg"><path d="m282.6 78.1c8-27.3 33-46.1 61.4-46.1h200c17.7 0 32 14.3 32 32s-14.3 32-32 32h-200l-105.3 361c-3.6 12.3-14.1 21.2-26.8 22.8s-25.1-4.6-31.5-15.6l-102.8-176.2h-45.6c-17.7 0-32-14.3-32-32s14.3-32 32-32h45.6c22.8 0 43.8 12.1 55.3 31.8l65.2 111.8zm110.8 155.3c12.5-12.5 32.8-12.5 45.3 0l41.3 41.3 41.4-41.4c12.5-12.5 32.8-12.5 45.3 0s12.5 32.8 0 45.3l-41.4 41.4 41.4 41.4c12.5 12.5 12.5 32.8 0 45.3s-32.8 12.5-45.3 0l-41.4-41.4-41.4 41.4c-12.5 12.5-32.8 12.5-45.3 0s-12.5-32.8 0-45.3l41.4-41.4-41.4-41.4c-12.5-12.5-12.5-32.8 0-45.3z" fill="#fff"/></svg>

<svg xmlns="http://www.w3.org/2000/svg" viewBox="0 0 576 512" preserveAspectRatio="xMinYMid meet"><path fill="#fff" d="M282.6 78.1c8-27.3 33-46.1 61.4-46.1H544c17.7 0 32 14.3 32 32s-14.3 32-32 32H344L238.7 457c-3.6 12.3-14.1 21.2-26.8 22.8s-25.1-4.6-31.5-15.6L77.6 288H32c-17.7 0-32-14.3-32-32s14.3-32 32-32H77.6c22.8 0 43.8 12.1 55.3 31.8l65.2 111.8L282.6 78.1zM393.4 233.4c12.5-12.5 32.8-12.5 45.3 0L480 274.7l41.4-41.4c12.5-12.5 32.8-12.5 45.3 0s12.5 32.8 0 45.3L525.3 320l41.4 41.4c12.5 12.5 12.5 32.8 0 45.3s-32.8 12.5-45.3 0L480 365.3l-41.4 41.4c-12.5 12.5-32.8 12.5-45.3 0s-12.5-32.8 0-45.3L434.7 320l-41.4-41.4c-12.5-12.5-12.5-32.8 0-45.3z"/></svg>
